X:11
T:Gr{\aa}tl{\aa}ten
R:polska J
H:efter Hjort Anders Olsson
A:Bingsj\"o, Dalarna
Z:id:hn-jp-11
M:3/4
L:1/16
K:Ddor
[A2D2] | [d3D3]^c ABAG {FE}F2AF | E^CE^C ^C2D2 D4 |
A2A^c {d^c}d3e f2ag | f2(3fgf e6A2 | [d3D3]^c ABAG DFAF | G2BG A6A2 |
A3^c {d^c}d3e {fe}f2af | {ef}e2^ce [d6D6] :||: e2 | f2ed {cB}c2c2 A3c |
B2AG A6AB | A2B2 c4 ABcd | ^fd^fd {e^f}e4 A4 | G3G =c2c2 A3A |
G2AG F6E2 | [D4A,4] {fe}f2gf e2fe | d2d2 {cd}^c6 ^c2 | d3e f2fa f3f |
gfed ^c2e^c A4- | A2A^c d2de {fe}f2af | e2^ce d6 :| 
<end>
<start>
